img/logo-symbol-footer.svg

<svg height="48" viewBox="0 0 48 48" width="48" xmlns="http://www.w3.org/2000/svg"><path d="m3.75 0h40.5c2.0710678 0 3.75 1.67893219 3.75 3.75v40.5c0 2.0710678-1.6789322 3.75-3.75 3.75h-40.5c-2.07106781 0-3.75-1.6789322-3.75-3.75v-40.5c0-2.07106781 1.67893219-3.75 3.75-3.75zm23.422 10.75c-2.0013433 0-3.8569914.3356633-5.567 1.007-1.7100085.6713367-3.2109935 1.640327-4.503 2.907-1.3173399 1.3173399-2.3369964 2.8499913-3.059 4.598s-1.083 3.5466574-1.083 5.396c0 3.800019 1.0069899 6.8463219 3.021 9.139s4.7056498 3.439 8.075 3.439c2.3813452 0 4.5283238-.7473259 6.441-2.242s3.4263278-3.5719867 4.541-6.232l-.57-.38c-.937338 1.4693407-2.0773266 2.5713297-3.42 3.306s-2.9006578 1.102-4.674 1.102c-2.4573456 0-4.388993-1.032323-5.795-3.097s-2.109-4.8449825-2.109-8.341c0-2.8120141.5509945-5.0223253 1.653-6.631s2.6663232-2.413 4.693-2.413c1.7226753 0 3.2616599.5446612 4.617 1.634s2.4129962 2.596657 3.173 4.522h.494v-7.714z" fill="#949391" fill-rule="evenodd"/></svg>

<?xml version="1.0" encoding="UTF-8"?>
<svg width="48px" height="48px" viewBox="0 0 48 48" version="1.1" xmlns="http://www.w3.org/2000/svg" xmlns:xlink="http://www.w3.org/1999/xlink">
    <!-- Generator: Sketch 55.1 (78136) - https://sketchapp.com -->
    <title>logo-symbol-footer</title>
    <desc>Created with Sketch.</desc>
    <g id="Page-1" stroke="none" stroke-width="1" fill="none" fill-rule="evenodd">
        <path d="M3.75,0 L44.25,0 C46.3210678,-3.80448985e-16 48,1.67893219 48,3.75 L48,44.25 C48,46.3210678 46.3210678,48 44.25,48 L3.75,48 C1.67893219,48 2.53632657e-16,46.3210678 0,44.25 L0,3.75 C-2.53632657e-16,1.67893219 1.67893219,3.80448985e-16 3.75,0 Z M27.172,10.75 C25.1706567,10.75 23.3150086,11.0856633 21.605,11.757 C19.8949915,12.4283367 18.3940065,13.397327 17.102,14.664 C15.7846601,15.9813399 14.7650036,17.5139913 14.043,19.262 C13.3209964,21.0100087 12.96,22.8086574 12.96,24.658 C12.96,28.458019 13.9669899,31.5043219 15.981,33.797 C17.9950101,36.0896781 20.6866498,37.236 24.056,37.236 C26.4373452,37.236 28.5843238,36.4886741 30.497,34.994 C32.4096762,33.4993259 33.9233278,31.4220133 35.038,28.762 L34.468,28.382 C33.530662,29.8513407 32.3906734,30.9533297 31.048,31.688 C29.7053266,32.4226703 28.1473422,32.79 26.374,32.79 C23.9166544,32.79 21.985007,31.757677 20.579,29.693 C19.172993,27.628323 18.47,24.8480175 18.47,21.352 C18.47,18.5399859 19.0209945,16.3296747 20.123,14.721 C21.2250055,13.1123253 22.7893232,12.308 24.816,12.308 C26.5386753,12.308 28.0776599,12.8526612 29.433,13.942 C30.7883401,15.0313388 31.8459962,16.538657 32.606,18.464 L33.1,18.464 L33.1,10.75 L27.172,10.75 Z" id="logo-symbol-footer" fill="#949391"></path>
    </g>
</svg>
